X: 33491
T: Ragtime Annie
R: reel
M: 4/4
K: Dmajor
A||FAAA BAGE|FFGE D3 A|FAAA BAAA|c4 cc2B|
ABcA BBcB|ABcA BBcB|ABcd e(3fed c|dA FA D2 AG||
FAAA BAGE|FFGE D3 A|FAAA BAAA|BccB cBcB||
ABcA BBcB|ABcA BBcB|ABcd e(3fed c|dA FA D2 (3efg||
a2 aa agfe|d2 (3Bce d2 (3efg|a2 aa agfd|B6 dB|
g3g gfef|gggf gfef|(3gfe fd ecdB|cABG ABde|
faaa agfe|d2 (3Bce d2 Bc|dz2d d^c =c2|B6 dB|
gBdG (3def gd|fAdf Adfd|ABcd (3efe dc|dAFA FD3||
A||FAAA BAGE|FFGE D3 A|FAAA BAAA|c4 cc2B|
ABcA BBcB|ABcA BBcB|ABcd e(3fed c|dA FA D2 AG||
FAAA BAGE|FFGE D3 A|FAAA BAAA|Bce3 Bce||
BceB ceBe|BceB ceBc|ABcd e(3fed c|dA FA D2 (3efg||

